lib/brands/icons/google-fit.svg

<svg xmlns="http://www.w3.org/2000/svg" fill="none" aria-hidden="true" viewBox="0 0 48 48"><g id="google-fit-Icon"><g id="Group"><path id="Vector" fill="#EA4335" d="M13.8157 8.9324C15.8388 8.67001 17.941 9.12036 19.6726 10.1998C20.65 10.776 21.4318 11.61 22.2335 12.3994C22.815 12.9687 23.3905 13.5449 23.9735 14.1126L23.995 14.1717C23.5595 14.6005 23.0652 15.4579 22.5124 16.744C21.3528 17.1519 20.5614 17.5637 20.1382 17.9794C19.1938 17.0702 18.2801 16.1288 17.3395 15.2151C16.4449 14.3773 15.0931 14.0397 13.9215 14.4241C12.5874 14.7993 11.5693 16.0751 11.4987 17.46C11.4526 18.1804 11.6406 18.9123 12.0304 19.5199C12.2728 19.9112 12.6272 20.2096 12.9449 20.5365C13.7082 21.3037 14.49 22.0532 15.2419 22.8312C14.8404 23.2258 14.365 23.9896 13.8157 25.1226C12.6472 25.6764 11.8365 26.1801 11.3836 26.6335C10.3686 25.6791 9.39805 24.6733 8.39224 23.7081C7.19462 22.4622 6.39365 20.8457 6.11746 19.1401C5.81364 17.3103 6.10211 15.3839 6.94912 13.7321C7.66032 12.3473 8.73672 11.1443 10.0463 10.2996C11.1849 9.58376 12.4746 9.082 13.8157 8.9324Z"/><path id="Vector_2" fill="#34A853" d="M24.0119 31.4692L32.788 22.8197L35.1609 24.2291L36.6456 26.6419L24.0119 39.1406L15.248 30.4703L16.9298 28.1037L19.1294 26.6389L24.0119 31.4692Z"/><path id="Vector_3" fill="#FBBC05" d="M20.1461 17.9878L22.3536 19.1818L24.0121 21.8208L15.2482 30.4703L11.3838 26.6335L20.1461 17.9878Z"/><path id="Vector_4" fill="#4285F4" d="M34.594 8.98533C37.1657 9.4211 39.531 11.0269 40.8276 13.2986C42.3045 15.7943 42.385 19.0327 41.0746 21.6152C40.5314 22.7246 39.7021 23.6605 38.819 24.5114C38.0863 25.2119 37.3905 25.9591 36.6455 26.6419C35.3566 25.3714 34.0661 24.1017 32.788 22.8197C33.6986 21.8998 34.6239 20.9953 35.5377 20.0784C36.1269 19.4831 36.4959 18.6668 36.5258 17.8267C36.5665 16.873 36.1898 15.9056 35.4985 15.2442C34.7942 14.5775 33.8076 14.1985 32.8363 14.2791C32.0008 14.319 31.1945 14.698 30.6052 15.2887C28.4064 17.4645 26.213 19.6465 24.0118 21.8208C22.7175 20.5487 21.4217 19.2782 20.1459 17.9878C20.1443 17.9855 20.1405 17.9816 20.1382 17.9793C21.4271 16.7134 22.7076 15.4391 23.995 14.1717C24.9279 13.2526 25.8577 12.3296 26.7914 11.4097C28.0006 10.1952 29.5948 9.39962 31.2604 9.03443C32.3583 8.82805 33.4907 8.80503 34.594 8.98533Z"/></g></g></svg>

<svg xmlns="http://www.w3.org/2000/svg" fill="none" aria-hidden="true" viewBox="0 0 48 48"><path fill="#EA4335" d="M13.816 8.932a8.975 8.975 0 0 1 5.857 1.268c.977.576 1.759 1.41 2.56 2.2.582.569 1.157 1.145 1.74 1.713l.022.059c-.436.428-.93 1.286-1.483 2.572-1.16.408-1.95.82-2.374 1.235-.944-.909-1.858-1.85-2.799-2.764-.894-.838-2.246-1.175-3.417-.79-1.335.374-2.353 1.65-2.423 3.035-.046.72.142 1.452.531 2.06.243.391.597.69.915 1.017.763.767 1.545 1.516 2.297 2.294-.402.395-.877 1.159-1.426 2.292-1.169.553-1.98 1.057-2.432 1.51-1.015-.954-1.986-1.96-2.992-2.925a8.623 8.623 0 0 1-2.275-4.568 8.788 8.788 0 0 1 .832-5.408 8.99 8.99 0 0 1 3.097-3.432c1.139-.716 2.429-1.218 3.77-1.368Z"/><path fill="#34A853" d="m24.012 31.47 8.776-8.65 2.373 1.41 1.485 2.412L24.012 39.14l-8.764-8.67 1.682-2.367 2.2-1.465 4.882 4.83Z"/><path fill="#FBBC05" d="m20.146 17.988 2.208 1.194 1.658 2.639-8.764 8.65-3.864-3.837 8.762-8.646Z"/><path fill="#4285F4" d="M34.594 8.985c2.572.436 4.937 2.042 6.234 4.314 1.476 2.495 1.557 5.734.247 8.316-.544 1.11-1.373 2.046-2.256 2.896-.733.7-1.428 1.448-2.174 2.13-1.288-1.27-2.579-2.54-3.857-3.821.91-.92 1.836-1.825 2.75-2.742a3.415 3.415 0 0 0 .988-2.251 3.415 3.415 0 0 0-1.028-2.583c-.704-.666-1.69-1.046-2.662-.965a3.427 3.427 0 0 0-2.23 1.01c-2.2 2.176-4.393 4.357-6.594 6.532-1.294-1.272-2.59-2.543-3.866-3.833a.085.085 0 0 0-.008-.009c1.29-1.266 2.57-2.54 3.857-3.807.933-.92 1.863-1.842 2.796-2.762 1.21-1.215 2.804-2.01 4.47-2.376a9.653 9.653 0 0 1 3.333-.049Z"/></svg>
